X:132
T:Last Tango In Harris
S:Niall Vallely - Beyond Words
Z:robin.beech@mcgill.ca
R:jig
M:6/8
L:1/8
K:Bmin
B2A Bcd | c2A cde | d3 def | e2d efg |
fdf ece | dBd cAc | Bdf fdf |1 edc B2A :|2 edc Bfe |:
f2f fed | e2e edc | ded dcB | cde ede |
faf fed | e2e edc | B2f fdf |1 edc Bfe :|2 edc B2A |:
B2A- ABB | c2A Bcc | d2c def | efe edc |
B2A- ABB | c2A Bcc | d2f fdf | edc B2A ::
Bad aBa | cae aca | daf ada | ead aca |
Bad aBa | cae aca | def fef | edc BBA :|
